apps/scalable/falkon.svg

<svg xmlns="http://www.w3.org/2000/svg" style="isolation:isolate" width="256" height="256"><defs><filter id="a" width="270.648" height="254.338" x="-7.32" y="2.95" filterUnits="userSpaceOnUse"><feGaussianBlur xmlns="http://www.w3.org/2000/svg" in="SourceGraphic" stdDeviation="4.294"/><feOffset xmlns="http://www.w3.org/2000/svg" dy="4" result="pf_100_offsetBlur"/><feFlood xmlns="http://www.w3.org/2000/svg" flood-opacity=".4"/><feComposite xmlns="http://www.w3.org/2000/svg" in2="pf_100_offsetBlur" operator="in" result="pf_100_dropShadow"/><feBlend xmlns="http://www.w3.org/2000/svg" in="SourceGraphic" in2="pf_100_dropShadow"/></filter></defs><g filter="url(#a)"><linearGradient id="b" x1="1.003" x2=".003" y1=".01" y2=".93" gradientTransform="matrix(244.648 0 0 228.338 5.676 11.947)" gradientUnits="userSpaceOnUse"><stop offset="0%" stop-color="#d446ff"/><stop offset="100%" stop-color="#a0d8ff"/></linearGradient><path fill="url(#b)" d="M165.685 11.947c74.055 0 84.639 10.557 84.639 84.544v59.251c0 73.986-10.584 84.543-84.639 84.543h-75.37c-74.055 0-84.639-10.557-84.639-84.543V96.491c0-73.987 10.584-84.544 84.639-84.544h75.37z"/></g><g opacity=".5"><path fill="none" d="M166.444 11.95c74.406 0 85.04 10.557 85.04 84.544v59.251c0 73.986-10.634 84.543-85.04 84.543H90.719c-74.405 0-85.039-10.557-85.039-84.543V96.494c0-73.987 10.634-84.544 85.039-84.544h75.725z"/><path fill="#FFF" fill-opacity=".961" d="M64.121 239.56c.55.036 1.021.098 1.581.131.435.025 1.027.011 1.468.035l-.039-7.592 26.629-24.465v-8.156l12.29-12.233v-6.115l6.144-6.117v-16.309l-8.193-8.156H87.614l-8.193-8.154H58.938l-8.195 8.154v20.389l16.443 14.34-.055 18.279-6.144 6.117v26.502l3.134 3.35zM99.904 81.267l-6.144 6.117h6.144l2.049 2.039h2.048l2.049-2.039-6.146-6.117zM177.742 109.809h-24.58l-14.338 14.271v20.388l10.241 10.194h14.339l6.145 6.116v6.116l4.097 4.077v24.465l15.556 16.365 25.688-25.567-.277-23.418 20.484-20.387h-8.194l-20.483-20.387v-8.155h-24.581l-4.097-4.078z"/><path fill="#FFF" fill-opacity=".961" d="M251.484 117.964V96.493c0-9.248-.167-17.505-.603-24.875a197.93 197.93 0 0 0-.869-10.4c-.366-3.254-.812-6.298-1.352-9.147-.54-2.848-1.174-5.501-1.914-7.97-.739-2.469-1.585-4.756-2.551-6.871-.614-1.347-1.365-2.511-2.08-3.723l-2.922 2.908h-12.29l-12.29 12.233-8.193-8.155h-24.58l-12.29 12.233v10.193h12.29v-6.117h8.193v8.156l-4.098 4.076-16.385.276-6.146 5.841h-8.193v8.155l-6.146 6.117v12.23h12.29l8.195-8.154h8.193v4.078l8.192 8.155h4.098v-4.079l-8.193-8.154h8.193l8.192 8.154h10.242l-6.144-6.115 6.144-6.115h6.146l6.144 6.115h-6.144l-6.146 6.115 6.034 6.006.112 6.227h-8.193l24.581 24.465h4.095l4.097-4.076 8.193-8.157-8.193-8.154h12.291z"/><path fill="#FFF" fill-opacity=".961" d="M157.259 71.073v-6.116l6.145-6.116v12.232h-6.145zM220.758 191.359v-12.784l8.194-7.604v20.388h-8.194zM136.775 11.95H90.718c-.789 0-1.348.049-2.123.051l-7.125 8.104 12.29 12.232V45.12l14.339 15.76h8.193v-8.154l12.29-12.233v-8.156l8.193-8.154V11.95zM126.533 56.802h6.146l6.145 6.116h-12.291v-6.116zM71.228 124.08h-6.145l-6.146 6.117h12.291v-6.117z"/><path fill="#FFF" fill-opacity=".961" d="M16.585 30.96c-.107.152-.245.268-.35.422a39.514 39.514 0 0 0-3.267 5.848c-.965 2.115-1.811 4.402-2.551 6.871-.74 2.469-1.373 5.122-1.913 7.97-.54 2.849-.986 5.893-1.352 9.147a197.89 197.89 0 0 0-.87 10.4c-.436 7.37-.602 15.627-.602 24.875v21.471l8.193 8.154h12.29l20.485 20.389v-24.465l12.29-12.232h8.193l12.29-12.233h12.29l-6.144-6.117 12.29-14.269-12.29-12.233H67.131v16.309h-8.193l-8.195-8.155v-8.154l12.291-12.232h10.243v-8.157l-12.29-12.232H40.502v12.232H30.26L16.585 30.96zM67.131 12.515c-.429.023-1.005.008-1.429.033-3.705.217-7.189.5-10.461.863-3.272.364-6.334.808-9.199 1.344a80.758 80.758 0 0 0-7.159 1.699l7.765 7.729h20.483V12.515z"/></g><linearGradient id="c" x1=".418" x2=".956" y1=".209" y2=".008" gradientTransform="matrix(141.776 0 0 97.649 66.333 92.032)" gradientUnits="userSpaceOnUse"><stop offset="0%" stop-color="#fff"/><stop offset="100%" stop-color="#dadada"/></linearGradient><path fill="url(#c)" d="M74.593 189.681s27.289-95.491 133.516-83.349c0 0-67.511-40.076-133.051 13.953-19.356 44.835-.465 69.396-.465 69.396z"/><linearGradient id="d" x1=".523" x2=".025" y1=".706" y2=".209" gradientTransform="matrix(104.576 0 0 84.254 82.717 107.746)" gradientUnits="userSpaceOnUse"><stop offset="0%" stop-color="#fff"/><stop offset="100%" stop-color="#dadada"/></linearGradient><path fill="url(#d)" d="M82.717 177.603s28.474-68.65 104.481-69.857c-57.776 14.076.095 63.975.095 63.975s-45.702 41.409-104.576 5.882z"/><linearGradient id="e" x1=".987" x2=".353" y1=".13" y2=".282" gradientTransform="matrix(141.803 0 0 77.232 66.864 47.745)" gradientUnits="userSpaceOnUse"><stop offset="0%" stop-color="#d0d0d0"/><stop offset="100%" stop-color="#fff"/></linearGradient><path fill="url(#e)" d="M66.864 124.977s56.872-62.56 141.803-19.336c-1.517-11.754-11.565-25.024-29.574-28.816-3.981-1.896-33.176-47.015-95.926-21.043 19.304 1.503 27.587 4.207 28.057 6.256-33.383-5.737-43.279 41.772-44.36 62.939z"/><path fill="#202020" d="M148.429 71.908s14.551-5.211 16.446 10.287c-14.348 1.354-16.446-10.287-16.446-10.287z"/><linearGradient id="f" x1=".343" x2="-.402" y1=".316" y2=".994" gradientTransform="matrix(115.162 0 0 85.032 67.097 104.96)" gradientUnits="userSpaceOnUse"><stop offset="0%" stop-color="#ffdc68"/><stop offset="100%" stop-color="#ce4300"/></linearGradient><path fill="url(#f)" d="M74.211 189.992s24.877-81.148 108.047-84.287c0 0-67.489-12.314-115.154 63.192-.265 10.682 7.107 21.095 7.107 21.095z"/><linearGradient id="g" x1=".957" x2="-.105" y1=".023" y2=".094" gradientTransform="matrix(34.315 0 0 7.446 83.237 54.644)" gradientUnits="userSpaceOnUse"><stop offset="0%" stop-color="#ffdc68"/><stop offset="100%" stop-color="#ce4300"/></linearGradient><path fill="url(#g)" d="M83.237 55.79s20.744 1.207 28.151 6.3c3.092-.636 5.718-2.753 6.164-5.637-2.654-1.098-26.942-3.076-34.315-.663z"/><linearGradient id="h" x1=".552" x2="-.636" y1=".396" y2="1.208" gradientTransform="matrix(78.519 0 0 34.921 66.934 90.165)" gradientUnits="userSpaceOnUse"><stop offset="0%" stop-color="#ffdc68"/><stop offset="100%" stop-color="#ce4300"/></linearGradient><path fill="url(#h)" d="M67.051 125.085s25.971-31.194 78.402-34.92c0 0-71.375 3.225-77.367 23.38-1.666 4.846-1.035 11.54-1.035 11.54z"/><g opacity=".4"><linearGradient id="i" x1=".517" x2=".517" y2="1"><stop offset="0%" stop-color="#fff"/><stop offset="12.5%" stop-opacity=".098" stop-color="#fff"/><stop offset="92.5%" stop-opacity=".098"/><stop offset="100%" stop-opacity=".498"/></linearGradient><path fill="none" stroke="url(#i)" stroke-linecap="round" stroke-linejoin="round" stroke-width="4.077" d="M165.685 11.947c74.055 0 84.639 10.557 84.639 84.544v59.251c0 73.986-10.584 84.543-84.639 84.543h-75.37c-74.055 0-84.639-10.557-84.639-84.543V96.491c0-73.987 10.584-84.544 84.639-84.544h75.37z" vector-effect="non-scaling-stroke"/></g></svg>

<svg xmlns="http://www.w3.org/2000/svg" style="isolation:isolate" width="256" height="256" viewBox="0 0 256 256">
 <defs>
  <filter id="4g6PVb1PVCneeeKNzdNnxvI0ya3bKoLn" width="270.648" height="254.338" x="-7.32" y="2.95" filterUnits="userSpaceOnUse">
   <feGaussianBlur xmlns="http://www.w3.org/2000/svg" in="SourceGraphic" stdDeviation="4.294"/>
   <feOffset xmlns="http://www.w3.org/2000/svg" dx="0" dy="4" result="pf_100_offsetBlur"/>
   <feFlood xmlns="http://www.w3.org/2000/svg" flood-opacity=".4"/>
   <feComposite xmlns="http://www.w3.org/2000/svg" in2="pf_100_offsetBlur" operator="in" result="pf_100_dropShadow"/>
   <feBlend xmlns="http://www.w3.org/2000/svg" in="SourceGraphic" in2="pf_100_dropShadow" mode="normal"/>
  </filter>
 </defs>
 <g filter="url(#4g6PVb1PVCneeeKNzdNnxvI0ya3bKoLn)">
  <linearGradient id="_lgradient_23" x1="1.003" x2=".003" y1=".01" y2=".93" gradientTransform="matrix(244.648,0,0,228.338,5.676,11.947)" gradientUnits="userSpaceOnUse">
   <stop offset="0%" style="stop-color:rgb(212,70,255)"/>
   <stop offset="100%" style="stop-color:rgb(160,216,255)"/>
  </linearGradient>
  <path fill="url(#_lgradient_23)" d="M 165.685 11.947 C 239.74 11.947 250.324 22.504 250.324 96.491 L 250.324 155.742 C 250.324 229.728 239.74 240.285 165.685 240.285 L 90.315 240.285 C 16.26 240.285 5.676 229.728 5.676 155.742 L 5.676 96.491 C 5.676 22.504 16.26 11.947 90.315 11.947 L 165.685 11.947 Z"/>
 </g>
 <g>
  <g style="opacity:0.5">
   <path fill="none" d="M 166.444 11.95 C 240.85 11.95 251.484 22.507 251.484 96.494 L 251.484 155.745 C 251.484 229.731 240.85 240.288 166.444 240.288 L 90.719 240.288 C 16.314 240.288 5.68 229.731 5.68 155.745 L 5.68 96.494 C 5.68 22.507 16.314 11.95 90.719 11.95 L 166.444 11.95 Z"/>
   <path fill="#FFFFFF" fill-opacity=".961" d="M 64.121 239.56 C 64.671 239.596 65.142 239.658 65.702 239.691 C 66.137 239.716 66.729 239.702 67.17 239.726 L 67.131 232.134 L 93.76 207.669 L 93.76 199.513 L 106.05 187.28 L 106.05 181.165 L 112.194 175.048 L 112.194 158.739 L 104.001 150.583 L 87.614 150.583 L 79.421 142.429 L 58.938 142.429 L 50.743 150.583 L 50.743 170.972 L 67.186 185.312 L 67.131 203.591 L 60.987 209.708 L 60.987 236.21 L 64.121 239.56 Z"/>
   <path fill="#FFFFFF" fill-opacity=".961" d="M 99.904 81.267 L 93.76 87.384 L 99.904 87.384 L 101.953 89.423 L 104.001 89.423 L 106.05 87.384 L 99.904 81.267 Z"/>
   <path fill="#FFFFFF" fill-opacity=".961" d="M 177.742 109.809 L 153.162 109.809 L 138.824 124.08 L 138.824 144.468 L 149.065 154.662 L 163.404 154.662 L 169.549 160.778 L 169.549 166.894 L 173.646 170.971 L 173.646 195.436 L 189.202 211.801 L 214.89 186.234 L 214.613 162.816 L 235.097 142.429 L 226.903 142.429 L 206.42 122.042 L 206.42 113.887 L 181.839 113.887 L 177.742 109.809 Z"/>
   <path fill="#FFFFFF" fill-opacity=".961" d="M 251.484 117.964 L 251.484 96.493 C 251.484 87.245 251.317 78.988 250.881 71.618 C 250.663 67.934 250.378 64.472 250.012 61.218 C 249.646 57.964 249.2 54.92 248.66 52.071 C 248.12 49.223 247.486 46.57 246.746 44.101 C 246.007 41.632 245.161 39.345 244.195 37.23 C 243.581 35.883 242.83 34.719 242.115 33.507 L 239.193 36.415 L 226.903 36.415 L 214.613 48.648 L 206.42 40.493 L 181.84 40.493 L 169.55 52.726 L 169.55 62.919 L 181.84 62.919 L 181.84 56.802 L 190.033 56.802 L 190.033 64.958 L 185.935 69.034 L 169.55 69.31 L 163.404 75.151 L 155.211 75.151 L 155.211 83.306 L 149.065 89.423 L 149.065 101.653 L 161.355 101.653 L 169.55 93.499 L 177.743 93.499 L 177.743 97.577 L 185.935 105.732 L 190.033 105.732 L 190.033 101.653 L 181.84 93.499 L 190.033 93.499 L 198.225 101.653 L 208.467 101.653 L 202.323 95.538 L 208.467 89.423 L 214.613 89.423 L 220.757 95.538 L 214.613 95.538 L 208.467 101.653 L 214.501 107.659 L 214.613 113.886 L 206.42 113.886 L 231.001 138.351 L 235.096 138.351 L 239.193 134.275 L 247.386 126.118 L 239.193 117.964 L 251.484 117.964 Z"/>
   <path fill="#FFFFFF" fill-opacity=".961" d="M 157.259 71.073 L 157.259 64.957 L 163.404 58.841 L 163.404 71.073 L 157.259 71.073 Z"/>
   <path fill="#FFFFFF" fill-opacity=".961" d="M 220.758 191.359 L 220.758 178.575 L 228.952 170.971 L 228.952 191.359 L 220.758 191.359 Z"/>
   <path fill="#FFFFFF" fill-opacity=".961" d="M 136.775 11.95 L 90.718 11.95 C 89.929 11.95 89.37 11.999 88.595 12.001 L 81.47 20.105 L 93.76 32.337 L 93.76 45.12 L 108.099 60.88 L 116.292 60.88 L 116.292 52.726 L 128.582 40.493 L 128.582 32.337 L 136.775 24.183 L 136.775 11.95 Z"/>
   <path fill="#FFFFFF" fill-opacity=".961" d="M 126.533 56.802 L 132.679 56.802 L 138.824 62.918 L 126.533 62.918 L 126.533 56.802 Z"/>
   <path fill="#FFFFFF" fill-opacity=".961" d="M 71.228 124.08 L 65.083 124.08 L 58.937 130.197 L 71.228 130.197 L 71.228 124.08 Z"/>
   <path fill="#FFFFFF" fill-opacity=".961" d="M 16.585 30.96 C 16.478 31.112 16.34 31.228 16.235 31.382 C 15.018 33.17 13.934 35.114 12.968 37.23 C 12.003 39.345 11.157 41.632 10.417 44.101 C 9.677 46.57 9.044 49.223 8.504 52.071 C 7.964 54.92 7.518 57.964 7.152 61.218 C 6.786 64.472 6.5 67.934 6.282 71.618 C 5.846 78.988 5.68 87.245 5.68 96.493 L 5.68 117.964 L 13.873 126.118 L 26.163 126.118 L 46.648 146.507 L 46.648 122.042 L 58.938 109.81 L 67.131 109.81 L 79.421 97.577 L 91.711 97.577 L 85.567 91.46 L 97.857 77.191 L 85.567 64.958 L 67.131 64.958 L 67.131 81.267 L 58.938 81.267 L 50.743 73.112 L 50.743 64.958 L 63.034 52.726 L 73.277 52.726 L 73.277 44.569 L 60.987 32.337 L 40.502 32.337 L 40.502 44.569 L 30.26 44.569 L 16.585 30.96 Z"/>
   <path fill="#FFFFFF" fill-opacity=".961" d="M 67.131 12.515 C 66.702 12.538 66.126 12.523 65.702 12.548 C 61.997 12.765 58.513 13.048 55.241 13.411 C 51.969 13.775 48.907 14.219 46.042 14.755 C 43.483 15.234 41.136 15.818 38.883 16.454 L 46.648 24.183 L 67.131 24.183 L 67.131 12.515 Z"/>
  </g>
 </g>
 <g>
  <linearGradient id="_lgradient_24" x1=".418" x2=".956" y1=".209" y2=".008" gradientTransform="matrix(141.776,0,0,97.649,66.333,92.032)" gradientUnits="userSpaceOnUse">
   <stop offset="0%" style="stop-color:rgb(255,255,255)"/>
   <stop offset="100%" style="stop-color:rgb(218,218,218)"/>
  </linearGradient>
  <path fill="url(#_lgradient_24)" d="M 74.593 189.681 C 74.593 189.681 101.882 94.19 208.109 106.332 C 208.109 106.332 140.598 66.256 75.058 120.285 C 55.702 165.12 74.593 189.681 74.593 189.681 L 74.593 189.681 Z"/>
  <linearGradient id="_lgradient_25" x1=".523" x2=".025" y1=".706" y2=".209" gradientTransform="matrix(104.576,0,0,84.254,82.717,107.746)" gradientUnits="userSpaceOnUse">
   <stop offset="0%" style="stop-color:rgb(255,255,255)"/>
   <stop offset="100%" style="stop-color:rgb(218,218,218)"/>
  </linearGradient>
  <path fill="url(#_lgradient_25)" d="M 82.717 177.603 C 82.717 177.603 111.191 108.953 187.198 107.746 C 129.422 121.822 187.293 171.721 187.293 171.721 C 187.293 171.721 141.591 213.13 82.717 177.603 L 82.717 177.603 Z"/>
  <linearGradient id="_lgradient_26" x1=".987" x2=".353" y1=".13" y2=".282" gradientTransform="matrix(141.803,0,0,77.232,66.864,47.745)" gradientUnits="userSpaceOnUse">
   <stop offset="0%" style="stop-color:rgb(208,208,208)"/>
   <stop offset="100%" style="stop-color:rgb(255,255,255)"/>
  </linearGradient>
  <path fill="url(#_lgradient_26)" d="M 66.864 124.977 C 66.864 124.977 123.736 62.417 208.667 105.641 C 207.15 93.887 197.102 80.617 179.093 76.825 C 175.112 74.929 145.917 29.81 83.167 55.782 C 102.471 57.285 110.754 59.989 111.224 62.038 C 77.841 56.301 67.945 103.81 66.864 124.977 Z"/>
  <path fill="#202020" d="M 148.429 71.908 C 148.429 71.908 162.98 66.697 164.875 82.195 C 150.527 83.549 148.429 71.908 148.429 71.908 Z"/>
  <linearGradient id="_lgradient_27" x1=".343" x2="-.402" y1=".316" y2=".994" gradientTransform="matrix(115.162,0,0,85.032,67.097,104.96)" gradientUnits="userSpaceOnUse">
   <stop offset="0%" style="stop-color:rgb(255,220,104)"/>
   <stop offset="100%" style="stop-color:rgb(206,67,0)"/>
  </linearGradient>
  <path fill="url(#_lgradient_27)" d="M 74.211 189.992 C 74.211 189.992 99.088 108.844 182.258 105.705 C 182.258 105.705 114.769 93.391 67.104 168.897 C 66.839 179.579 74.211 189.992 74.211 189.992 Z"/>
  <linearGradient id="_lgradient_28" x1=".957" x2="-.105" y1=".023" y2=".094" gradientTransform="matrix(34.315,0,0,7.446,83.237,54.644)" gradientUnits="userSpaceOnUse">
   <stop offset="0%" style="stop-color:rgb(255,220,104)"/>
   <stop offset="100%" style="stop-color:rgb(206,67,0)"/>
  </linearGradient>
  <path fill="url(#_lgradient_28)" d="M 83.237 55.79 C 83.237 55.79 103.981 56.997 111.388 62.09 C 114.48 61.454 117.106 59.337 117.552 56.453 C 114.898 55.355 90.61 53.377 83.237 55.79 L 83.237 55.79 Z"/>
  <linearGradient id="_lgradient_29" x1=".552" x2="-.636" y1=".396" y2="1.208" gradientTransform="matrix(78.519,0,0,34.921,66.934,90.165)" gradientUnits="userSpaceOnUse">
   <stop offset="0%" style="stop-color:rgb(255,220,104)"/>
   <stop offset="100%" style="stop-color:rgb(206,67,0)"/>
  </linearGradient>
  <path fill="url(#_lgradient_29)" d="M 67.051 125.085 C 67.051 125.085 93.022 93.891 145.453 90.165 C 145.453 90.165 74.078 93.39 68.086 113.545 C 66.42 118.391 67.051 125.085 67.051 125.085 L 67.051 125.085 Z"/>
 </g>
 <g opacity=".4">
  <linearGradient id="_lgradient_30" x1=".517" x2=".517" y1="0" y2="1">
   <stop offset="0%" style="stop-color:rgb(255,255,255)"/>
   <stop offset="12.5%" stop-opacity=".098" style="stop-color:rgb(255,255,255)"/>
   <stop offset="92.5%" stop-opacity=".098" style="stop-color:rgb(0,0,0)"/>
   <stop offset="100%" stop-opacity=".498" style="stop-color:rgb(0,0,0)"/>
  </linearGradient>
  <path fill="none" stroke="url(#_lgradient_30)" stroke-linecap="round" stroke-linejoin="round" stroke-width="4.077" d="M 165.685 11.947 C 239.74 11.947 250.324 22.504 250.324 96.491 L 250.324 155.742 C 250.324 229.728 239.74 240.285 165.685 240.285 L 90.315 240.285 C 16.26 240.285 5.676 229.728 5.676 155.742 L 5.676 96.491 C 5.676 22.504 16.26 11.947 90.315 11.947 L 165.685 11.947 Z" vector-effect="non-scaling-stroke"/>
 </g>
</svg>
